X: 69
T: Alma redemptoris mater
N: Derived from Ock2001-Alma_redemptoris_mater.krn
C: Johannes Ockeghem
%%abc-version 2.0
%%abcx-abcm2ps-target-version 5.9.1 (29 Sep 2008)
%%abc-creator hum2abc beta
%%abcx-conversion-date 2019/02/17 07:26:16
%%abc-edited-by Jesse Rodin
%%abc-edited-by Jesse Rodin 8-16-2012
%%abcx-initial-encoding-date 2012/08/16/
%%humdrum-veritas 2285701073
%%humdrum-veritas-data 3150048536
%%linebreak <none>
%%barnumbers 0
L: 1/4
M: 3/1
Q: 1/2=120
%%staves [1 2 3 4]
V: 1 clef=treble
V: 2 clef=treble-8
V: 3 clef=treble-8
V: 4 clef=bass
K: C
[V:1] z12 | 
[V:2] c3defg4f2 | 
[V:3] z12 | 
[V:4] z12 | 
[V:1] z2d2e2g3ef2- | 
[V:2] g4z4g2a2- | 
[V:3] z12 | 
[V:4] z12 | 
[V:1] fge2d4c2e2- | 
[V:2] abc'4b2c'4- | 
[V:3] z12 | 
[V:4] z12 | 
[V:1] efg4f2ee2d/c/ | 
[V:2] c'2b2a4g4 | 
[V:3] z12 | 
[V:4] z12 | 
[V:1] B2d3cA2B2G2 | 
[V:2] z2g2f4g4 | 
[V:3] z12 | 
[V:4] z12 | 
[V:1] F4G2B2A2d2- | 
[V:2] a4g4z2f2 | 
[V:3] z12 | 
[V:4] z12 | 
[V:1] dc/d/e3dcBB3G | 
[V:2] g4a4g2e2 | 
[V:3] z12 | 
[V:4] z12 | 
[V:1] A2F2E2G2F4 | 
[V:2] f4g2e4d2 | 
[V:3] z12 | 
[V:4] z12 | 
[V:1] E8z4 | 
[V:2] e4z4e3f | 
[V:3] z12 | 
[V:4] z4E,3F,G,4 | 
[V:1] z12 | 
[V:2] g4c8 | 
[V:3] z12 | 
[V:4] C,3D,E,2F,2E,2F,2- | 
[V:1] z12 | 
[V:2] d4e4f4 | 
[V:3] z12 | 
[V:4] F,2G,4E,2D,2B,,2 | 
[V:1] z12 | 
[V:2] e2e4c2d4 | 
[V:3] z12 | 
[V:4] C,2G,2A,2C4B,2 | 
[V:1] z4z4c4 | 
[V:2] c8z4 | 
[V:3] z4z4f4 | 
[V:4] C4A,4F,4 | 
[V:1] c6d2e4 | 
[V:2] g6a2b4 | 
[V:3] e2c2e2f2g4 | 
[V:4] C,2C4A,2G,4 | 
[V:1] f4e2c2d4 | 
[V:2] c'8b4 | 
[V:3] a4g2g4e2 | 
[V:4] F,4C,4G,4 | 
[V:1] c2d4B2A2c2 | 
[V:2] a4g2e4f2 | 
[V:3] f4d2g2z2c2 | 
[V:4] z2F,2G,4A,4 | 
[V:1] B2G2A4G4 | 
[V:2] g4e2d4g2 | 
[V:3] d2e2c2A2B2c2 | 
[V:4] G,2E,4F,2G,2E,2 | 
[V:1] z12 | 
[V:2] fa2gfee4d2 | 
[V:3] d4c2B2A4 | 
[V:4] D,4A,2G,2F,4 | 
[V:1] z4z4d4 | 
[V:2] e8z4 | 
[V:3] z2e4c2B3A | 
[V:4] E,8G,4 | 
[V:1] e4d2e3fg2- | 
[V:2] g8c4 | 
[V:3] c4G4z2c2 | 
[V:4] C,4z4z4 | 
[V:1] gfe4d2e4- | 
[V:2] d2e2f4e2g2- | 
[V:3] B2c2d4A2G2 | 
[V:4] z12 | 
[V:1] e2g4f2e2d2- | 
[V:2] g4c2d2e2g2 | 
[V:3] c4e2d2c2B2- | 
[V:4] z12 | 
[V:1] d2c4B2c4 | 
[V:2] f2e2d4c4 | 
[V:3] B2c2G4z2g2 | 
[V:4] z12 | 
[V:1] z2g2e2c2d3c | 
[V:2] c'8b4 | 
[V:3] e2c4e2d4 | 
[V:4] C,8G,4 | 
[V:1] A4c2e2d2g2- | 
[V:2] c'4a2c'2b2g2 | 
[V:3] z2f4e2g4 | 
[V:4] F,6C,2G,4 | 
[V:1] g2^f2g4z2c2 | 
[V:2] a4g2e2f4 | 
[V:3] d6B2c4 | 
[V:4] z2D,2G,4A,4 | 
[V:1] B4c2d4B2 | 
[V:2] g6a4g2 | 
[V:3] d2e4f4ed | 
[V:4] G,2E,4D,2F,2G,2 | 
[V:1] A4G4A4 | 
[V:2] f4e2c4d2 | 
[V:3] c2A2B2c2A4 | 
[V:4] A,4E,4F,4 | 
[V:1] G2c4B2A4 | 
[V:2] e4e4z2f2- | 
[V:3] z4z4c2d2 | 
[V:4] E,2A,4G,2F,2D,2- | 
[V:1] F2G2A2F2E4 | 
[V:2] f2e2d4c4 | 
[V:3] B2c3AB2c4 | 
[V:4] D,2C,2F,2G,2A,4 | 
[V:1] D4z2d3dd2 | 
[V:2] z2g4g2g3e | 
[V:3] G8_B4 | 
[V:4] _B,8G,4 | 
[V:1] d3Bc2d2e4 | 
[V:2] f2g2a4g4 | 
[V:3] A8c4 | 
[V:4] D,4z2F,2E,2C,2 | 
[V:1] d2c3BA4G2 | 
[V:2] f4e2e4d2 | 
[V:3] A3Bc4z2G2 | 
[V:4] F,3G,A,4_B,4 | 
[V:1] A12 | 
[V:2] e4z4z4 | 
[V:3] c2A2c3de2f2- | 
[V:4] A,12 | 
[V:1] z12 | 
[V:2] c'6a2b4 | 
[V:3] f2e2c4d4 | 
[V:4] z12 | 
[V:1] z12 | 
[V:2] c'4b2g2a4 | 
[V:3] c2e3dg4f2 | 
[V:4] z12 | 
[V:1] z12 | 
[V:2] g2a3bc'4b2 | 
[V:3] e2c4e2d4 | 
[V:4] z12 | 
[V:1] z12 | 
[V:2] c'6a2b4 | 
[V:3] c4A4G4 | 
[V:4] z12 | 
[V:1] z12 | 
[V:2] c'2d'3ga2g2c'2 | 
[V:3] F4G2F2G2A2 | 
[V:4] z12 | 
[V:1] z12 | 
[V:2] b2a3gg4^f2 | 
[V:3] G2c4B2A4 | 
[V:4] z12 | 
[V:1] z4z4G3A | 
[V:2] g4z4g4 | 
[V:3] G8z4 | 
[V:4] z4z4G,4 | 
[V:1] B3cd2d3cAB | 
[V:2] g8f4 | 
[V:3] d4B2c2d4 | 
[V:4] G,6F,2D,4 | 
[V:1] c3BG4z2F2- | 
[V:2] e8f4 | 
[V:3] z2G2c4A4 | 
[V:4] C,8D,4 | 
[V:1] F2A4G2A2F2 | 
[V:2] f6e2d4 | 
[V:3] F4z4F2A2 | 
[V:4] z2D,4E,2F,2D,2 | 
[V:1] G2E2D4E4 | 
[V:2] c4z4z2c2 | 
[V:3] G2c4B2c2A2 | 
[V:4] E,2C,2G,4C,4 | 
[V:1] z2F2G4A4 | 
[V:2] d4e4z2f2- | 
[V:3] _B4G4c2A2 | 
[V:4] _B,,4z2C,4D,2- | 
[V:1] z2G2A2F2G4 | 
[V:2] f2e2d4e4 | 
[V:3] _B2G2F4z2c2- | 
[V:4] D,2E,2F,2D,2C,4 | 
[V:1] A4z2G4F2 | 
[V:2] z2f4e2d4 | 
[V:3] c2A4A2_B4 | 
[V:4] F,3E,D,2C,2_B,,4 | 
[V:1] E2G2F2D4E2 | 
[V:2] c6A2B4 | 
[V:3] G4z4z4 | 
[V:4] C,4F,4G,4 | 
[V:1] F2G4A3GG2 | 
[V:2] c2d2e4d4 | 
[V:3] c2=B2c4G4 | 
[V:4] A,2G,2z2C3B,B,2 | 
[V:1] F2G4c2d2f2 | 
[V:2] f2e3dc4B2 | 
[V:3] c2B3AG4F2 | 
[V:4] A,2G,4E,2D,4 | 
[V:1] e12 ||  
[V:2] c12 ||  
[V:3] G12 ||  
[V:4] C,12 ||  
[V:1]  [K:C] [K:clef=treble][M:2/1]c8 | 
[V:2]  [K:C] [K:clef=treble-8][M:2/1]c'8- | 
[V:3]  [K:C] [K:clef=treble-8][M:2/1]z8 | 
[V:4]  [K:C] [K:clef=bass][M:2/1]z8 | 
[V:1] e6dc | 
[V:2] c'6ba | 
[V:3] z8 | 
[V:4] z8 | 
[V:1] d4e4- | 
[V:2] b4c'4 | 
[V:3] z8 | 
[V:4] z8 | 
[V:1] e4f4 | 
[V:2] a8 | 
[V:3] z8 | 
[V:4] z8 | 
[V:1] g4f2d2 | 
[V:2] g4a2b2 | 
[V:3] z8 | 
[V:4] z8 | 
[V:1] e4d3e | 
[V:2] z2c'2b2d'2- | 
[V:3] z8 | 
[V:4] z8 | 
[V:1] f2g4^f2 | 
[V:2] d'2b2a4 | 
[V:3] z8 | 
[V:4] z8 | 
[V:1] g8 | 
[V:2] g4z4 | 
[V:3] z8 | 
[V:4] G,4G,F,E,D, | 
[V:1] z8 | 
[V:2] g4gfed | 
[V:3] z8 | 
[V:4] C,4G,4 | 
[V:1] z8 | 
[V:2] c4e4 | 
[V:3] z8 | 
[V:4] A,4G,2A,2 | 
[V:1] z8 | 
[V:2] g2fed4 | 
[V:3] z8 | 
[V:4] G,2C4B,2 | 
[V:1] g4gfed | 
[V:2] c8 | 
[V:3] e8 | 
[V:4] C4z4 | 
[V:1] c4e4 | 
[V:2] z4g4- | 
[V:3] f4e2c2- | 
[V:4] z8 | 
[V:1] g3fd4 | 
[V:2] g2a2b4 | 
[V:3] cdefg4 | 
[V:4] z4G,4 | 
[V:1] c6e2- | 
[V:2] c'4a4 | 
[V:3] c8 | 
[V:4] A,4F,2E,2 | 
[V:1] edd2B2c2 | 
[V:2] b4g2a2- | 
[V:3] B2d2e2f2- | 
[V:4] G,6F,2- | 
[V:1] d2c2A4 | 
[V:2] abg4^f2 | 
[V:3] f2edd4 | 
[V:4] F,2G,2D,4 | 
[V:1] G4z4 | 
[V:2] g8 | 
[V:3] z2d4cd | 
[V:4] G,8 | 
[V:1] c4d4- | 
[V:2] z8 | 
[V:3] e2d2B4- | 
[V:4] C,4G,4 | 
[V:1] d2e4d2 | 
[V:2] g8 | 
[V:3] B2c4B2 | 
[V:4] z8 | 
[V:1] e2g4e2 | 
[V:2] g8 | 
[V:3] G4c4 | 
[V:4] z4C,4 | 
[V:1] f4e4 | 
[V:2] a4e4 | 
[V:3] A4c4 | 
[V:4] F,4A,4 | 
[V:1] z2d4cd | 
[V:2] f8 | 
[V:3] d8 | 
[V:4] D,8 | 
[V:1] e4c4 | 
[V:2] e8 | 
[V:3] A8 | 
[V:4] z4A,4- | 
[V:1] f8 | 
[V:2] a8 | 
[V:3] c8 | 
[V:4] A,2F,2F,4 | 
[V:1] e4d2d2- | 
[V:2] g4g4- | 
[V:3] z4d4- | 
[V:4] G,4_B,4- | 
[V:1] d2cBA4 | 
[V:2] g4f4 | 
[V:3] d4c4- | 
[V:4] B,4F,4 | 
[V:1] G4c4- | 
[V:2] e4c4 | 
[V:3] c2d2e4 | 
[V:4] C8 | 
[V:1] c4B4 | 
[V:2] d8 | 
[V:3] z4d4 | 
[V:4] G,8 | 
[V:1] c8 | 
[V:2] c8 | 
[V:3] e8 | 
[V:4] C,8 | 
[V:1] A4B4 | 
[V:2] z8 | 
[V:3] f4d4 | 
[V:4] F,4G,4 | 
[V:1] c4A4 | 
[V:2] c8 | 
[V:3] c4f4- | 
[V:4] A,8 | 
[V:1] z4d4 | 
[V:2] d8 | 
[V:3] f2g4fg | 
[V:4] _B,8 | 
[V:1] c6BA | 
[V:2] e8 | 
[V:3] a6gf | 
[V:4] A,4C4- | 
[V:1] G8 | 
[V:2] z8 | 
[V:3] e6d2- | 
[V:4] C2A,2G,4 | 
[V:1] z4d4 | 
[V:2] f8 | 
[V:3] d2A2B4 | 
[V:4] F,4D,4 | 
[V:1] e4c4 | 
[V:2] e8 | 
[V:3] c8 | 
[V:4] C,4C4 | 
[V:1] d8 | 
[V:2] d8 | 
[V:3] G8 | 
[V:4] B,2B,4A,2 | 
[V:1] G4A4 | 
[V:2] c8 | 
[V:3] e4f4 | 
[V:4] C4A,4 | 
[V:1] B4d4- | 
[V:2] d6e2 | 
[V:3] g8 | 
[V:4] G,8 | 
[V:1] d2c2B2A2 | 
[V:2] f8 | 
[V:3] f4d4 | 
[V:4] D8 | 
[V:1] c4B2A2- | 
[V:2] e4e4- | 
[V:3] c8 | 
[V:4] A,4C4 | 
[V:1] A2GFG3F | 
[V:2] e4d4 | 
[V:3] z4G4 | 
[V:4] _B,8 | 
[V:1] A8- | 
[V:2] e8 | 
[V:3] c6d2 | 
[V:4] A,6=B,2 | 
[V:1] A4c4 | 
[V:2] z8 | 
[V:3] e8 | 
[V:4] C8 | 
[V:1] B4d4- | 
[V:2] g8 | 
[V:3] d4B4- | 
[V:4] G,8 | 
[V:1] d2c2A4 | 
[V:2] f8 | 
[V:3] B2c2d4 | 
[V:4] z8 | 
[V:1] G4E4- | 
[V:2] g8 | 
[V:3] G8- | 
[V:4] z4C,4 | 
[V:1] E2F2G4- | 
[V:2] c8 | 
[V:3] G8 | 
[V:4] C,8 | 
[V:1] G2F4ED | 
[V:2] d8 | 
[V:3] z8 | 
[V:4] B,,8 | 
[V:1] C4G4- | 
[V:2] e8 | 
[V:3] G6A2 | 
[V:4] C,8 | 
[V:1] G2FGA4- | 
[V:2] f8 | 
[V:3] _B4c4- | 
[V:4] _B,,4A,,4 | 
[V:1] A2G2G4- | 
[V:2] e8 | 
[V:3] c4G4 | 
[V:4] C,8 | 
[V:1] G4F4 | 
[V:2] d8 | 
[V:3] B6A2 | 
[V:4] D,8 | 
[V:1] G4E4 | 
[V:2] e4c4 | 
[V:3] c8 | 
[V:4] C,8 | 
[V:1] D8 | 
[V:2] d2B4AB | 
[V:3] B4d4 | 
[V:4] G,8 | 
[V:1] [M:2/1]C8D4 | 
[V:2] [M:2/1]c8B4 | 
[V:3] [M:2/1]e8d4 | 
[V:4] [M:2/1]C,12 | 
[V:1] E4F4G4- | 
[V:2] A8G4 | 
[V:3] c8B4 | 
[V:4] z12 | 
[V:1] G2A2c4B4 | 
[V:2] c8e4 | 
[V:3] G12 | 
[V:4] C,8G,4- | 
[V:1] d6cde4 | 
[V:2] d4g4z4 | 
[V:3] B8c4 | 
[V:4] G,4G,4C,4 | 
[V:1] f4g4e4- | 
[V:2] a4g4c'4- | 
[V:3] d4e4g4- | 
[V:4] F,4E,8 | 
[V:1] e2c2d2B2A4 | 
[V:2] c'4b4c'4 | 
[V:3] g2f2d8 | 
[V:4] C,4G,4F,4 | 
[V:1] G4c4d4 | 
[V:2] c8B4 | 
[V:3] G4A4F4 | 
[V:4] E,4F,4D,4 | 
[V:1] e4c4f4 | 
[V:2] c4e4d4 | 
[V:3] G4A8 | 
[V:4] C,8D,4 | 
[V:1] e4d6c2 | 
[V:2] g4d2f4g2 | 
[V:3] G4A4_B4 | 
[V:4] E,4F,4_B,,4 | 
[V:1] c8B4 | 
[V:2] e4d8 | 
[V:3] G8G4 | 
[V:4] C,4G,8 | 
[V:1] c12 |]  
[V:2] c12 |]  
[V:3] G12 |]  
[V:4] C,12 |]  



